!!!OTL: Erklaerung an die Saengerin.
!!!OTL-incipit: O ICH HABE DEINE STIMME
!!!ARE: Europa, Mitteleuropa, Deutschland
!!!SCT: F0937
!!!TXL: @@DE
!!!YEM: Copyright 1995, estate of Helmut Schaffrath.
**kern	**text
*ICvox	*
*clefG2	*
*M4/4	*
*met(c)	*
*k[f#c#g#d#]	*
*E:	*
!LO:TX:a:t=Andante.	!
!LO:TX:a:t=P:only the highest voice encoded:problem	!
{8.b/	1._O
16b/	ich
=1	=1
8b/L	ha-
8g#J	.
8gg#L	-be
8ff#J	.
8eeL	dei-
8dd#J	.
8cc#L	-ne
8bJ	.
=2	=2
16bL	Stim-
16cc#	.
16g#	.
16aJ	.
4a	-me,
4r}	.
{8.a	dei-
16a	-nen
=3	=3
8aL	Ʒau-
8f#J	.
8ff#L	-ber-
8eeJ	.
8dd#L	-ton
8cc#J	.
8bL	ge-
8aJ	.
=4	=4
(>4a	-hört!
4g#)	.
4r}	.
{8.e	Und
16e	du
=5	=5
8f#L	haſt
8d#J	.
4e	da-
8aL	-durch
8f#J	.
4g#	auf
=6	=6
4cc#	im-
4b}	-mer
{4.ee	mei-
8ee	-ne
=7	=7
(>16cc#/L	Ru-
16ee	.
16dd#	.
16eeJ	.
16dd#/L	.
16cc#J)	.
16bL	-he
16aJ	.
4g#	mir
4f#	ge-
=8	=8
2e	-ſtört.
4r}	.
==	==
!!!AGN: Liebes - Lied
!!!ONB: ESAC (Essen Associative Code) Database: FINK
!!!AMT: simple quadruple
!!!AIN: vox
!!!EED: Helmut Schaffrath
!!!EEV: 1.0
!!!RDF**kern: > = above
!!!GTL: Minnelieder
!!!source: Musikalischer Hausschatz der Deutschen. Eine Sammlung von über 1000 Liedern und Gesängen mit Singstimmen und Klavierbegleitung. Leipzig, Litterarisches Verlags-Haus.
!!!page: 695
!!!URL-scan: https://www.digitale-sammlungen.de/en/view/bsb11144622?page=594
!!!ENC: Anna Maria Matuszewska
!!!EEV: 2024/08/08
*-	*-